svg/u1f692.svg

<svg viewBox="0 0 128 128" xmlns="http://www.w3.org/2000/svg">
  <path d="M114.14,30.48c-0.14-1.74-1.09-2.39-4.2-2.53c-3.11-0.14-63.67,0.22-64.97,0.22s-2.24,1.01-2.24,2.75 c0,1.74,0.07,19.17,0.07,19.17l46.56,11.57l23.41-7.1c0,0,0.72-0.49,1.01-1.43C114.06,52.19,114.28,32.22,114.14,30.48z M56.36,32.19l-9.35,10.84V32.19H56.36z M49.1,44.41l9.3-10.85v10.85H49.1z M62.89,32.19h8.67l-8.67,10.12V32.19z M74.28,44.41h-9.8 l9.8-11.02V44.41z M78.88,32.19h9.78l-9.78,11.18V32.19z M90.79,44.41h-9.33l9.33-10.32V44.41z" fill="#B0B0B0"/>
  <path d="M24.8,47.75c0,0,0-6.1,0.04-7.26c0.03-0.79,0.58-1.29,1.33-1.29s14.98-0.12,15.68-0.08 c0.71,0.04,1.24,0.5,1.24,1.29s-0.04,7.39-0.04,7.39s-9.79,1.41-10.46,1.24C31.93,48.87,24.8,47.75,24.8,47.75z" fill="#D60D29"/>
  <path d="M32.39,40.62c0.5,0.62-1.33,2.7-1.33,3.15c0,0.58,1.91,2.78,1.45,3.53 c-0.16,0.26-5.89-2.36-5.85-3.53C26.7,42.69,32.07,40.21,32.39,40.62z" fill="#FF6063"/>
  <path d="M36.08,40.53c-0.54,0.66,1.36,2.69,1.33,3.32c-0.04,0.71-1.7,3.19-1.2,3.49 c0.5,0.29,5.22-2.87,5.31-3.65C41.6,42.98,36.68,39.8,36.08,40.53z" fill="#FF6063"/>
  <path d="M118,95.22c0,0,0.16-2.18,0.02-5.43c-0.05-1.12-0.54-2.79-0.68-3.33c0-0.02,0.7-3.75,0.7-3.77 c0.03-10.65,0.06-24.44-0.04-25.6c-0.17-1.91-1.39-2.6-3.29-2.77c-1.91-0.17-21.27-0.15-21.27-0.15s0.1-3.5,0.07-5.07 c-0.02-1.09-1.44-1.36-2.83-1.28c-1.65,0.1-72.29-0.26-74.19-0.09c-1.91,0.17-3.64,0.52-4.16,3.64s-1.73,25.29-1.73,25.29 s-3.64,2.6-4.68,3.98c-1.34,1.79-1.21,3.46-1.21,3.46l0.87,24.95l13.69,3.64l93.72,0.52l12.82-5.37c0,0,0.01-9.6,0.01-11.05 c0-1.54-1.16-1.5-3.62-1.5C120.73,95.32,118,95.22,118,95.22z" fill="#FF2A23"/>
  <path d="M42.22,96.52l24.24,0.12l10.52-14.19l41.07,0.24c0,0,0.02,1.44,0,3.71 c-0.01,1.96-0.02,3.38-0.02,3.38l-37.55-0.31c0,0-10.33,14.84-10.8,14.84c-0.47,0-22.36,0.02-22.36,0.02L42.22,96.52z" fill="#F2EEEA"/>
  <path d="M57.16,47.78h2.72l-0.04,62.46h-2.96C56.88,110.24,57.28,47.78,57.16,47.78z" fill="#B60F27"/>
  <path d="M49.95,107.86l75.84,0.01c0,0,0.1,3.42,0.1,3.8c0,0.38,0.13,1.78-1.14,1.78 c-1.27,0-74.55-0.51-74.55-0.51L49.95,107.86z" fill="#B0B0B0"/>
  <path d="M51.78,112.94c0,0,1.95-18.22-15.65-18.26c-17.85-0.04-16.45,18.03-16.45,18.03L51.78,112.94z" fill="#B60F27"/>
  <path d="M76.66,113.11c0,0-1.06-18.71,16.7-18.66c17.78,0.06,16.07,18.9,16.07,18.9L76.66,113.11z" fill="#B60F27"/>
  <path d="M22.78,111.47c0.08,5.07,4.12,12.37,12.93,12.43s13.37-6.69,13.1-13.6 c-0.28-7.02-5.74-11.98-13.6-11.76C27.85,98.75,22.67,104.45,22.78,111.47z" fill="#4E433D"/>
  <path d="M29.07,111.17c0.04,2.67,2.17,6.52,6.8,6.55c4.63,0.03,6.87-3.32,6.73-6.97 c-0.15-3.7-3.11-6.46-6.99-6.4C31.74,104.41,29.01,107.47,29.07,111.17z" fill="#C8C8C8"/>
  <path d="M106.3,110.93c-0.1-5.07-4.18-12.35-12.98-12.37c-8.8-0.02-13.34,6.75-13.04,13.65 c0.31,7.02,5.79,11.96,13.65,11.7C101.28,123.67,106.44,117.95,106.3,110.93z" fill="#4E433D"/>
  <path d="M100.01,111.26c-0.05-2.67-2.2-6.51-6.83-6.52c-4.63-0.01-6.86,3.35-6.7,7 c0.17,3.7,3.14,6.45,7.02,6.37C97.37,118.03,100.08,114.96,100.01,111.26z" fill="#C8C8C8"/>
  <path d="M5.42,100.58c0,0,4.82,2.21,4.82,1.22c0-0.99-0.14-17.43-0.14-18.33c0-1.08-2.51-0.86-3.94-0.91 C4.8,82.5,5.1,82.91,5.1,82.91L5.42,100.58z" fill="#FFFFFF"/>
  <path d="M6.91,98.97c0,0,10.21-0.05,11.51,0c1.81,0.06,1.3,2.3,1.3,4.54c0,2.24-0.04,9.21-0.04,9.21 s-16.76,0.01-17.06-0.05s-1.06-0.3-1.12-1.59s0.05-9.45,0.05-10.57c0-1.71,2.3-1.53,2.3-1.53S3.78,85.28,3.72,83.98 c-0.06-1.3,0.89-1.48,1.42-1.48s1.66-0.08,1.72,0.51C6.92,83.6,6.91,98.97,6.91,98.97z" fill="#B0B0B0"/>
  <polygon points="11.69,55.83 18,55.78 17.83,72.47 10.45,75.96 " fill="#AFE3FB"/>
  <path d="M11.96,53.98c0,0,7.46,0.02,7.81,0.38c0.35,0.35-0.12,19.12-0.18,19.47 c-0.06,0.35-7.85,3.78-8.73,4.19c-0.89,0.41-1.79,0.15-2.12-0.89c-0.31-0.96,0.41-1.71,1.83-2.54c1.21-0.7,5.66-2.71,5.66-2.71 s0.3-14.22,0.06-14.4c-0.24-0.18-4.66-0.18-4.66-0.18s-1.03-0.11-0.99-1.81C10.68,54.02,11.96,53.98,11.96,53.98z" fill="#5F6165"/>
  <path d="M23.61,54.54c-0.19,0.32-0.59,19.06-0.35,19.24c0.24,0.18,19.18,0.35,19.41,0.12 c0.24-0.24,0.06-19.24-0.12-19.35S23.79,54.24,23.61,54.54z" fill="#5F6165"/>
  <polygon points="26.94,57.27 39.19,57.31 39.19,71.24 26.74,71.29 " fill="#AFE3FB"/>
</svg>

<svg viewBox="0 0 128 128" xmlns="http://www.w3.org/2000/svg">
  <defs/>
  <path d="M114.14,30.48 C114,28.74 113.05,28.09 109.94,27.95 C106.83,27.81 46.27,28.17 44.97,28.17 C43.67,28.17 42.73,29.18 42.73,30.92 C42.73,32.66 42.8,50.09 42.8,50.09 L89.36,61.66 L112.77,54.56 C112.77,54.56 113.49,54.07 113.78,53.13 C114.06,52.19 114.28,32.22 114.14,30.48 Z M56.36,32.19 L47.01,43.03 L47.01,32.19 L56.36,32.19 Z M49.1,44.41 L58.4,33.56 L58.4,44.41 L49.1,44.41 Z M62.89,32.19 L71.56,32.19 L62.89,42.31 L62.89,32.19 Z M74.28,44.41 L64.48,44.41 L74.28,33.39 L74.28,44.41 Z M78.88,32.19 L88.66,32.19 L78.88,43.37 L78.88,32.19 Z M90.79,44.41 L81.46,44.41 L90.79,34.09 L90.79,44.41 Z" fill="#B0B0B0"/>
  <path d="M24.8,47.75 C24.8,47.75 24.8,41.65 24.84,40.49 C24.87,39.7 25.42,39.2 26.17,39.2 C26.92,39.2 41.15,39.08 41.85,39.12 C42.56,39.16 43.09,39.62 43.09,40.41 C43.09,41.2 43.05,47.8 43.05,47.8 C43.05,47.8 33.26,49.21 32.59,49.04 C31.93,48.87 24.8,47.75 24.8,47.75 Z" fill="#D60D29"/>
  <path d="M32.39,40.62 C32.89,41.24 31.06,43.32 31.06,43.77 C31.06,44.35 32.97,46.55 32.51,47.3 C32.35,47.56 26.62,44.94 26.66,43.77 C26.7,42.69 32.07,40.21 32.39,40.62 Z" fill="#FF6063"/>
  <path d="M36.08,40.53 C35.54,41.19 37.44,43.22 37.41,43.85 C37.37,44.56 35.71,47.04 36.21,47.34 C36.71,47.63 41.43,44.47 41.52,43.69 C41.6,42.98 36.68,39.8 36.08,40.53 Z" fill="#FF6063"/>
  <path d="M118,95.22 C118,95.22 118.16,93.04 118.02,89.79 C117.97,88.67 117.48,87 117.34,86.46 C117.34,86.44 118.04,82.71 118.04,82.69 C118.07,72.04 118.1,58.25 118,57.09 C117.83,55.18 116.61,54.49 114.71,54.32 C112.8,54.15 93.44,54.17 93.44,54.17 C93.44,54.17 93.54,50.67 93.51,49.1 C93.49,48.01 92.07,47.74 90.68,47.82 C89.03,47.92 18.39,47.56 16.49,47.73 C14.58,47.9 12.85,48.25 12.33,51.37 C11.81,54.49 10.6,76.66 10.6,76.66 C10.6,76.66 6.96,79.26 5.92,80.64 C4.58,82.43 4.71,84.1 4.71,84.1 L5.58,109.05 L19.27,112.69 L112.99,113.21 L125.81,107.84 C125.81,107.84 125.82,98.24 125.82,96.79 C125.82,95.25 124.66,95.29 122.2,95.29 C120.73,95.32 118,95.22 118,95.22 Z" fill="#FF2A23"/>
  <path d="M42.22,96.52 L66.46,96.64 L76.98,82.45 L118.05,82.69 C118.05,82.69 118.07,84.13 118.05,86.4 C118.04,88.36 118.03,89.78 118.03,89.78 L80.48,89.47 C80.48,89.47 70.15,104.31 69.68,104.31 C69.21,104.31 47.32,104.33 47.32,104.33 L42.22,96.52 Z" fill="#F2EEEA"/>
  <path d="M57.16,47.78 L59.88,47.78 L59.84,110.24 L56.88,110.24 C56.88,110.24 57.28,47.78 57.16,47.78 Z" fill="#B60F27"/>
  <path d="M49.95,107.86 L125.79,107.87 C125.79,107.87 125.89,111.29 125.89,111.67 C125.89,112.05 126.02,113.45 124.75,113.45 C123.48,113.45 50.2,112.94 50.2,112.94 L49.95,107.86 Z" fill="#B0B0B0"/>
  <path d="M51.78,112.94 C51.78,112.94 53.73,94.72 36.13,94.68 C18.28,94.64 19.68,112.71 19.68,112.71 L51.78,112.94 Z" fill="#B60F27"/>
  <path d="M76.66,113.11 C76.66,113.11 75.6,94.4 93.36,94.45 C111.14,94.51 109.43,113.35 109.43,113.35 L76.66,113.11 Z" fill="#B60F27"/>
  <path d="M22.78,111.47 C22.86,116.54 26.9,123.84 35.71,123.9 C44.52,123.96 49.08,117.21 48.81,110.3 C48.53,103.28 43.07,98.32 35.21,98.54 C27.85,98.75 22.67,104.45 22.78,111.47 Z" fill="#4E433D"/>
  <path d="M29.07,111.17 C29.11,113.84 31.24,117.69 35.87,117.72 C40.5,117.75 42.74,114.4 42.6,110.75 C42.45,107.05 39.49,104.29 35.61,104.35 C31.74,104.41 29.01,107.47 29.07,111.17 Z" fill="#C8C8C8"/>
  <path d="M106.3,110.93 C106.2,105.86 102.12,98.58 93.32,98.56 C84.52,98.54 79.98,105.31 80.28,112.21 C80.59,119.23 86.07,124.17 93.93,123.91 C101.28,123.67 106.44,117.95 106.3,110.93 Z" fill="#4E433D"/>
  <path d="M100.01,111.26 C99.96,108.59 97.81,104.75 93.18,104.74 C88.55,104.73 86.32,108.09 86.48,111.74 C86.65,115.44 89.62,118.19 93.5,118.11 C97.37,118.03 100.08,114.96 100.01,111.26 Z" fill="#C8C8C8"/>
  <path d="M5.42,100.58 C5.42,100.58 10.24,102.79 10.24,101.8 C10.24,100.81 10.1,84.37 10.1,83.47 C10.1,82.39 7.59,82.61 6.16,82.56 C4.8,82.5 5.1,82.91 5.1,82.91 L5.42,100.58 Z" fill="#FFFFFF"/>
  <path d="M6.91,98.97 C6.91,98.97 17.12,98.92 18.42,98.97 C20.23,99.03 19.72,101.27 19.72,103.51 C19.72,105.75 19.68,112.72 19.68,112.72 C19.68,112.72 2.92,112.73 2.62,112.67 C2.32,112.61 1.56,112.37 1.5,111.08 C1.44,109.79 1.55,101.63 1.55,100.51 C1.55,98.8 3.85,98.98 3.85,98.98 C3.85,98.98 3.78,85.28 3.72,83.98 C3.66,82.68 4.61,82.5 5.14,82.5 C5.67,82.5 6.8,82.42 6.86,83.01 C6.92,83.6 6.91,98.97 6.91,98.97 Z" fill="#B0B0B0"/>
  <path d="M11.69,55.83 L18,55.78 L17.83,72.47 L10.45,75.96 Z" fill="#AFE3FB"/>
  <path d="M11.96,53.98 C11.96,53.98 19.42,54 19.77,54.36 C20.12,54.71 19.65,73.48 19.59,73.83 C19.53,74.18 11.74,77.61 10.86,78.02 C9.97,78.43 9.07,78.17 8.74,77.13 C8.43,76.17 9.15,75.42 10.57,74.59 C11.78,73.89 16.23,71.88 16.23,71.88 C16.23,71.88 16.53,57.66 16.29,57.48 C16.05,57.3 11.63,57.3 11.63,57.3 C11.63,57.3 10.6,57.19 10.64,55.49 C10.68,54.02 11.96,53.98 11.96,53.98 Z" fill="#5F6165"/>
  <path d="M23.61,54.54 C23.42,54.86 23.02,73.6 23.26,73.78 C23.5,73.96 42.44,74.13 42.67,73.9 C42.91,73.66 42.73,54.66 42.55,54.55 C42.37,54.44 23.79,54.24 23.61,54.54 Z" fill="#5F6165"/>
  <path d="M26.94,57.27 L39.19,57.31 L39.19,71.24 L26.74,71.29 Z" fill="#AFE3FB"/>
</svg>
